svg/emoji_u1f600.svg

<svg xmlns="http://www.w3.org/2000/svg" xmlns:xlink="http://www.w3.org/1999/xlink" width="128" height="128"><defs><linearGradient id="a"><stop offset="0" stop-color="#fff"/><stop offset="1" stop-color="#fff" stop-opacity=".787"/></linearGradient><linearGradient xlink:href="#a" id="b" x1="95.743" y1="70.878" x2="95.743" y2="82.469" gradientUnits="userSpaceOnUse"/></defs><path d="M63.89 9.64C1.58 9.64.1 79.5.1 93.33c0 13.83 28.56 25.03 63.79 25.03 35.24 0 63.79-11.21 63.79-25.03 0-13.83-1.47-83.69-63.79-83.69z" fill="#fcc21b"/><g fill="#2f2f2f"><path d="M42 58.3c-4.49.04-8.17-4.27-8.22-9.62-.05-5.37 3.55-9.75 8.04-9.79 4.48-.04 8.17 4.27 8.22 9.64.05 5.35-3.55 9.72-8.04 9.77zM86.11 58.3c4.48-.01 8.11-4.36 8.1-9.71-.01-5.37-3.66-9.7-8.14-9.69-4.49.01-8.13 4.36-8.12 9.73.02 5.35 3.67 9.68 8.16 9.67z"/></g><path d="M96.462 69.49c-3.09-2.09-6.98-.71-10.42 0-9.58 1.98-18 2.06-22.04 2.06-4.04 0-12.46-.08-22.04-2.06-3.44-.71-7.33-2.09-10.42 0-3.92 2.65-1.03 12.15 5.14 18.57 3.73 3.88 12.61 11.41 27.32 11.41s23.59-7.53 27.32-11.41c6.17-6.42 9.05-15.92 5.14-18.57z" fill="#ec6c31" stroke-width="5"/><path d="M35.354 70.879c-.956.01-1.713.21-2.41.682h-.003c-.287.194-.522.5-.64 1.378-.119.88-.002 2.216.431 3.733.117.409.26.831.42 1.262A44.377 16.047 0 0 0 64 82.469a44.377 16.047 0 0 0 30.838-4.51c.164-.438.31-.869.43-1.285.433-1.517.55-2.855.431-3.735-.118-.878-.352-1.185-.636-1.378-.93-.63-1.969-.775-3.44-.633-1.47.142-3.224.627-5.074 1.01-9.851 2.036-18.474 2.11-22.547 2.11s-12.694-.074-22.545-2.11c-1.851-.383-3.605-.868-5.076-1.01a9.628 9.628 0 0 0-1.027-.05z" fill="url(#b)" stroke-width=".78" stroke-linejoin="round"/></svg>

<?xml version="1.0" encoding="UTF-8" standalone="no"?>
<!DOCTYPE svg PUBLIC "-//W3C//DTD SVG 1.1//EN" "http://www.w3.org/Graphics/SVG/1.1/DTD/svg11.dtd">
<svg width="100%" height="100%" viewBox="0 0 128 128" version="1.1" xmlns="http://www.w3.org/2000/svg" xmlns:xlink="http://www.w3.org/1999/xlink" xml:space="preserve" xmlns:serif="http://www.serif.com/" style="fill-rule:evenodd;clip-rule:evenodd;stroke-linejoin:round;stroke-miterlimit:2;">
    <path d="M63.89,9.64C1.58,9.64 0.1,79.5 0.1,93.33C0.1,107.16 28.66,118.36 63.89,118.36C99.13,118.36 127.68,107.15 127.68,93.33C127.68,79.5 126.21,9.64 63.89,9.64Z" style="fill:rgb(252,194,27);fill-rule:nonzero;"/>
    <g>
        <path d="M42,58.3C37.51,58.34 33.83,54.03 33.78,48.68C33.73,43.31 37.33,38.93 41.82,38.89C46.3,38.85 49.99,43.16 50.04,48.53C50.09,53.88 46.49,58.25 42,58.3ZM86.11,58.3C90.59,58.29 94.22,53.94 94.21,48.59C94.2,43.22 90.55,38.89 86.07,38.9C81.58,38.91 77.94,43.26 77.95,48.63C77.97,53.98 81.62,58.31 86.11,58.3Z" style="fill:rgb(47,47,47);fill-rule:nonzero;"/>
    </g>
    <path d="M96.462,69.49C93.372,67.4 89.482,68.78 86.042,69.49C76.462,71.47 68.042,71.55 64.002,71.55C59.962,71.55 51.542,71.47 41.962,69.49C38.522,68.78 34.632,67.4 31.542,69.49C27.622,72.14 30.512,81.64 36.682,88.06C40.412,91.94 49.292,99.47 64.002,99.47C78.712,99.47 87.592,91.94 91.322,88.06C97.492,81.64 100.372,72.14 96.462,69.49Z" style="fill:rgb(236,108,49);fill-rule:nonzero;"/>
    <path d="M35.354,70.879C34.398,70.889 33.641,71.089 32.944,71.561L32.941,71.561C32.654,71.755 32.419,72.061 32.301,72.939C32.182,73.819 32.299,75.155 32.732,76.672C32.849,77.081 32.992,77.503 33.152,77.934C41.414,80.835 52.483,82.463 64,82.469C75.504,82.468 86.567,80.85 94.838,77.959C95.002,77.521 95.148,77.09 95.268,76.674C95.701,75.157 95.818,73.819 95.699,72.939C95.581,72.061 95.347,71.754 95.063,71.561C94.133,70.931 93.094,70.786 91.623,70.928C90.153,71.07 88.399,71.555 86.549,71.938C76.698,73.974 68.075,74.048 64.002,74.048C59.929,74.048 51.308,73.974 41.457,71.938C39.606,71.555 37.852,71.07 36.381,70.928C36.04,70.893 35.697,70.876 35.354,70.878L35.354,70.879Z" style="fill:rgb(250,250,250);fill-rule:nonzero;"/>
</svg>
